X:1
T:Title
%%score 1 { 2 | 3 }
L:1/8
Q:1/4=95
M:4/4
K:C
V:1 treble nm="Grand Piano, Soprano"
V:2 treble nm="Choir Pad, I Shall Be Satisfied (Whittle)"
V:3 bass 
V:1
 [EG]3 [_E^F] [=EG]2 [=FA]2 | [FA]2 [EG]2 [CE] [EG]3 | [FA]3 [F^G] [FA]2 [Ac]2 | %3
w: By~James~McGranahan * * *|||
 [Ac][GB] [FA]2 [EG]4 | [DF]3 [_E^F] [=EG]2 [=FA]2 | [FA]2 [EG]2 [CE] [EG]3 | %6
w: |||
 [FA]3 [FB] [Ec]2 [Fd][Ec] | [DB]3 [^FA] G2 =F2 | [EG]4- (3[EG][_E^F][=EG] (3[FA][EG][CE] | %9
w: |||
 [Ec]4- (3[Ec][Fd][Ge] (3[Fd][Fc][FA] | [EG]2 [GB]>[FA] [EG]2 [DF]>[B,D] | [DF]2 [CE]4 z2 | %12
w: |||
 [EG]4- (3[EG][_E^F][=EG] (3[FA][EG][CE] | [Ge]4- (3[Ge][Gd][Gc] (3[Fd][Fc][FA] | %14
w: ||
 [EG]2 [Ec]>[Fd] [Ge]2 (3[Ec][Fd][Ge] | [Fd]4 [Ec]4- | [Ec]4 z4 |] %17
w: |||
V:2
 C3 C C2 C2 | C2 C2 G, C3 | C3 C C2 C2 | C2 C2 C4 | C3 C C2 C2 | C2 C2 G, C3 | %6
 C3[K:bass] G, G,2 G,2 | G,3 C B,4 | (3CCC (3CCC z4 | (3G,G,G, (3CCG, (3G,G,G, (3A,A,C | %10
 C2 G,>G, C2 G,>G, | G,2 G,4 z2 | (3CCC (3CCC z4 | (3CCC (3CCC (3C[K:bass]B,C (3A,A,C | %14
 C2 C>B, C2 (3:2:2G,2[K:bass] G, | B,2 A,G, G,4- | G,4 z4 |] %17
V:3
 C,3 C, C,2 C,2 | C,2 C,2 C, C,3 | F,3 F, F,2 F,2 | C,2 C,2 C,4 | C,3 C, C,2 C,2 | C,2 C,2 C, C,3 | %6
 F,3 D, C,2 B,,C, | D,3 D, G,,4 | (3C,E,G, (3C,C,C, z4 | (3C,E, z (3z G,E, (3C,C,C, (3F,F,F, | %10
 G,2 z2 G,,2 G,,>G,, | C,2 C,4 z2 | (3C,E,G, (3C,C,C, z4 | (3C,E,G, (3z G,E, (3C,D,E, (3F,F,F, | %14
 G,2 G,>G, G,2 z2 | G,,4 C,4- | C,4 z4 |] %17

